X: 25340
T: Many A Wild Night
R: polka
M: 2/4
K: Dmajor
|Ad dB|AF FD|GB BA|F/G/A D>B|
Ad dB|AF FD|GB BA|D2 D>B:|
|:Ad fa|ge e>c|Ac e/f/g|fd d/e/d/B/|
Ad fa|ge ed|ce ba|d2 d>B:|

